X: 30513
M: 2/4
L: 1/16
K: D
(fg) |\
adde fBBc | dFFG A2gf | fdgf aaef | gBdf e2fg |\
bbaf agef | gefd edBG | edBc FBdf | d2f2d2 H:|
|: A2 |\
EDEF ABAF | EDEF AFAd | fdec d2cd | B2B2 BAGA |
d2DF AFdc | B2B2 BAFA | d2DF Adfd | edef dcde |\
egfd edBc | dfdB GFED | AFGA Bcde | f2d2d2 :|


